_site/images/nav-icon.svg

<svg xmlns="http://www.w3.org/2000/svg" viewBox="0 0 534.4 396" enable-background="new 0 0 534.4 396"><path fill="#fff" d="M489.7 109.6h-434.3c-2.3 0-4.2-1.9-4.2-4.2v-28.2c0-2.3 1.9-4.2 4.2-4.2h434.4c2.3 0 4.2 1.9 4.2 4.2v28.3c-.1 2.2-2 4.1-4.3 4.1zM489.7 261.4h-434.3c-2.3 0-4.2-1.9-4.2-4.2v-28.2c0-2.3 1.9-4.2 4.2-4.2h434.4c2.3 0 4.2 1.9 4.2 4.2v28.3c-.1 2.3-2 4.1-4.3 4.1zM489.7 186h-434.3c-2.3 0-4.2-1.9-4.2-4.2v-28.3c0-2.3 1.9-4.2 4.2-4.2h434.4c2.3 0 4.2 1.9 4.2 4.2v28.3c-.1 2.3-2 4.2-4.3 4.2z"/></svg>

<?xml version="1.0" encoding="utf-8"?>
<!-- Generator: Adobe Illustrator 18.1.0, SVG Export Plug-In . SVG Version: 6.00 Build 0)  -->
<svg version="1.1" id="Layer_1" xmlns="http://www.w3.org/2000/svg" xmlns:xlink="http://www.w3.org/1999/xlink" x="0px" y="0px"
	 viewBox="0 0 534.4 396" enable-background="new 0 0 534.4 396" xml:space="preserve">
<path fill="#FFFFFF" d="M489.7,109.6H55.4c-2.3,0-4.2-1.9-4.2-4.2V77.2c0-2.3,1.9-4.2,4.2-4.2h434.4c2.3,0,4.2,1.9,4.2,4.2v28.3
	C493.9,107.7,492,109.6,489.7,109.6z"/>
<path fill="#FFFFFF" d="M489.7,261.4H55.4c-2.3,0-4.2-1.9-4.2-4.2V229c0-2.3,1.9-4.2,4.2-4.2h434.4c2.3,0,4.2,1.9,4.2,4.2v28.3
	C493.9,259.6,492,261.4,489.7,261.4z"/>
<path fill="#FFFFFF" d="M489.7,186H55.4c-2.3,0-4.2-1.9-4.2-4.2v-28.3c0-2.3,1.9-4.2,4.2-4.2h434.4c2.3,0,4.2,1.9,4.2,4.2v28.3
	C493.9,184.1,492,186,489.7,186z"/>
</svg>
